images/header/search.svg

<svg width="21" height="20" viewBox="0 0 21 20" fill="none" xmlns="http://www.w3.org/2000/svg">
<path fill-rule="evenodd" clip-rule="evenodd" d="M8.48218 16C4.0702 16 0.493591 12.4183 0.493591 8C0.493591 3.58172 4.0702 0 8.48218 0C12.8942 0 16.4708 3.58172 16.4708 8C16.4708 9.84871 15.8446 11.551 14.793 12.9056L20.1726 18.2929L18.7604 19.7071L13.3808 14.3199C12.0281 15.3729 10.3283 16 8.48218 16ZM14.4736 8C14.4736 11.3137 11.7912 14 8.48218 14C5.1732 14 2.49074 11.3137 2.49074 8C2.49074 4.68629 5.1732 2 8.48218 2C11.7912 2 14.4736 4.68629 14.4736 8Z" fill="white"/>
</svg>

<svg width="21" height="20" fill="none" xmlns="http://www.w3.org/2000/svg"><path fill-rule="evenodd" clip-rule="evenodd" d="M8.4822 16C4.0702 16 .4936 12.4183.4936 8s3.5766-8 7.9886-8 7.9886 3.5817 7.9886 8c0 1.8487-.6262 3.551-1.6778 4.9056l5.3796 5.3873-1.4122 1.4142-5.3796-5.3872C12.0281 15.3729 10.3283 16 8.4822 16Zm5.9914-8c0 3.3137-2.6824 6-5.9914 6-3.309 0-5.9915-2.6863-5.9915-6s2.6825-6 5.9915-6 5.9914 2.6863 5.9914 6Z" fill="#fff"/></svg>
